assets/demo/images/logo.min.svg

<svg height="3314" viewBox="0 0 3314 3314" width="3314" xmlns="http://www.w3.org/2000/svg" xmlns:xlink="http://www.w3.org/1999/xlink"><mask id="a" fill="#fff"><path d="m0 0h3313.663v2255.377h-3313.663z" fill="#fff" fill-rule="evenodd"/></mask><g fill="none" fill-rule="evenodd"><circle cx="1657" cy="1657" fill="#fff" r="1653"/><path d="m114.758166 2254.27789c-230.293574-550.91601-136.2996165-1348.346257 486.714034-1868.349818 600.50997-501.206864 1455.74399-515.301769 2065.39576-35.980753 657.90534 517.249504 765.98373 1323.465501 538.07771 1905.430101-55.3534-28.7867-110.80104-56.31679-165.04443-86.025-333.26178-182.4798-614.41639-425.40224-852.74175-720.09676-84.08774-103.98395-176.33292-202.07234-271.07037-296.68413-78.09792-77.98273-173.92442-120.68632-289.52149-96.81085-77.10311 15.91698-144.64556 51.14377-206.54377 98.40255-98.54915 75.23914-176.81461 170.01848-254.8497 264.63027-204.355184 247.79178-433.004701 469.42526-705.310727 642.60619-102.455089 65.15491-211.078009 120.70726-317.020174 180.42735-8.869528 4.995-18.681509 8.325-28.085093 12.45085" fill="#e62642" mask="url(#a)"/><path d="m2412.48948 2297.56789c-9.02661-4.71226-17.8333-9.90623-27.11123-14.07396-142.49886-64.03443-291.03989-83.08245-445.42413-59.37453-177.91414 27.31019-334.34036 104.62273-481.31064 204.10386-154.09103 104.29811-308.16112 208.61716-462.189316 313.01999-2.628397 1.79066-4.534246 4.64943-6.775189 7.00556 49.154145-9.27792 96.119715-22.2 142.132355-37.85518 181.33839-61.72019 346.50847-156.31103 512.27545-249.88612 238.40914-134.58226 489.34243-212.50216 768.4027-162.93962m-1881.397559 575.68158c85.428109-43.52038 172.688765-85.22915 257.341969-131.62924 198.700463-108.91613 377.96545-246.50376 559.87979-380.15404 136.0064-99.93141 282.46357-179.42207 447.91639-220.50254 261.3631-64.90358 512.93517-30.71349 749.37563 90.21368 143.11669 73.18669 276.48423 165.26433 414.09281 249.06933 32.62981 19.87528 64.73603 40.60924 97.03075 60.91386-602.25875 944.67279-1846.2336 983.02014-2525.637339 332.08895" fill="#020303"/><path d="m363.641098 2688.92036c-26.283961-34.89169-52.295658-69.42735-80.098015-106.34009 54.892639-24.28386 107.094051-46.56764 158.625276-70.30697 198.648104-91.53311 378.92885-212.51264 553.921389-342.13131 154.384242-114.35094 321.093662-203.89442 511.280642-244.17905 212.39744-44.98641 420.20828-35.28962 621.11827 53.2067 9.0999 4.01066 17.88566 8.72292 25.27868 18.18934-33.47802-4.5133-66.91415-9.34075-100.42358-13.50849-310.1298-38.59868-593.82903 36.21113-853.35959 203.84207-134.43565 86.83131-262.462626 183.44319-395.53696 272.44215-134.22622 89.77387-277.133478 164.20669-427.444226 224.1048-3.748868 1.48699-7.612924 2.67029-13.361886 4.68085" fill="#020303"/><g fill="#fefefe"><path d="m2412.48948 2297.56789c-279.06027-49.56254-529.99356 28.35736-768.4027 162.93962-165.76698 93.57509-330.93706 188.16593-512.27545 249.88612-46.01264 15.65518-92.97821 28.57726-142.132355 37.85518 2.240943-2.35613 4.146792-5.2149 6.775189-7.00556 154.028196-104.40283 308.098286-208.72188 462.189316-313.01999 146.97028-99.48113 303.3965-176.79367 481.31064-204.10386 154.38424-23.70792 302.92527-4.6599 445.42413 59.37453 9.27793 4.16773 18.08462 9.3617 27.11123 14.07396"/><path d="m182.13 283.14v-23.4h35.88v23.4zm35.88-76.83v23.4h-35.88v-23.4zm-1.17-136.89c-1.95 14.04-6.24 33.93-10.14 47.58l19.89 4.29h-55.77l17.55-4.29c-.78-12.87-4.29-32.76-10.14-47.58zm-130.26 27.69h-25.74v-42.12h25.74zm-25.74 164.19v-47.19h25.74v42.51zm25.74-84.63h-25.74v-42.12h25.74zm239.46-5.07c-3.9 14.82-8.58 29.25-14.04 42.9-1.56-17.55-2.73-36.66-3.51-57.33h58.5v-35.88h-60.06c-.78-26.13-1.17-53.43-1.17-82.29 12.87 18.33 25.35 41.34 30.81 56.94l31.98-17.94c-6.63-17.55-21.84-42.9-37.83-62.01l-24.96 13.26v-29.25h-40.56c.39 43.29 1.17 84.24 2.34 121.29h-31.2c4.29-12.48 9.75-30.03 15.6-46.8l-26.52-5.07h33.54v-33.93h-39.78v-35.1h-39.39v35.1h-38.22v-21.06h-133.77v40.56h15.21v212.55c-8.19 1.56-15.99 2.73-23.01 3.51l7.8 42.51c23.4-4.68 51.09-10.53 78.78-16.38v66.69h38.61v-308.88h14.82v14.43h30.81l-22.62 5.46c4.68 14.43 7.8 33.54 8.58 46.41h-24.57v35.88h136.89c1.95 44.85 5.46 83.85 10.53 115.44-7.8 10.92-16.38 21.06-25.74 30.03v-128.31h-107.25v163.02h35.49v-22.62h58.5c-8.58 7.02-17.94 13.65-27.69 19.5 8.19 7.41 21.45 22.62 26.52 30.42 18.72-12.87 35.88-28.08 51.09-45.63 9.36 28.47 22.23 44.07 39.78 44.46 13.26 0 31.59-13.65 41.34-76.83-6.63-4.29-23.4-16.38-30.03-25.74-1.56 30.81-4.68 48.75-9.36 48.75-4.68-.39-8.97-10.92-12.48-29.64 18.33-29.25 32.76-62.79 43.29-100.23zm216.06-163.02c-2.73 51.48 2.73 228.54-152.88 314.73 15.6 10.92 30.81 24.96 39 37.05 82.29-50.31 123.24-125.58 144.3-195.78 21.84 71.76 65.52 152.1 153.66 195.78 7.41-12.48 21.45-28.47 35.88-39.39-145.47-68.25-164.97-236.34-168.09-290.16.39-8.19.78-15.99 1.17-22.23z" fill-rule="nonzero" transform="translate(561.53 667.06)"/></g></g></svg>

<svg xmlns="http://www.w3.org/2000/svg" xmlns:xlink="http://www.w3.org/1999/xlink" width="3314" height="3314" viewBox="0 0 3314 3314"><defs><polygon id="a" points="0 0 3313.663 0 3313.663 2255.377 0 2255.377"/></defs><g fill="none" fill-rule="evenodd"><circle cx="1657" cy="1657" r="1653" fill="#FFF"/><mask id="b" fill="#fff"><use xlink:href="#a"/></mask><path fill="#E62642" d="M114.758166,2254.27789 C-115.535408,1703.36188 -21.5414505,905.931633 601.4722,385.928072 C1201.98217,-115.278792 2057.21619,-129.373697 2666.86796,349.947319 C3324.7733,867.196823 3432.85169,1673.41282 3204.94567,2255.37742 C3149.59227,2226.59072 3094.14463,2199.06063 3039.90124,2169.35242 C2706.63946,1986.87262 2425.48485,1743.95018 2187.15949,1449.25566 C2103.07175,1345.27171 2010.82657,1247.18332 1916.08912,1152.57153 C1837.9912,1074.5888 1742.1647,1031.88521 1626.56763,1055.76068 C1549.46452,1071.67766 1481.92207,1106.90445 1420.02386,1154.16323 C1321.47471,1229.40237 1243.20925,1324.18171 1165.17416,1418.7935 C960.818976,1666.58528 732.169459,1888.21876 459.863433,2061.39969 C357.408344,2126.5546 248.785424,2182.10695 142.843259,2241.82704 C133.973731,2246.82204 124.16175,2250.15204 114.758166,2254.27789" mask="url(#b)"/><path fill="#020303" d="M2412.48948,2297.56789 C2403.46287,2292.85563 2394.65618,2287.66166 2385.37825,2283.49393 C2242.87939,2219.4595 2094.33836,2200.41148 1939.95412,2224.1194 C1762.03998,2251.42959 1605.61376,2328.74213 1458.64348,2428.22326 C1304.55245,2532.52137 1150.48236,2636.84042 996.454164,2741.24325 C993.825767,2743.03391 991.919918,2745.89268 989.678975,2748.24881 C1038.83312,2738.97089 1085.79869,2726.04881 1131.81133,2710.39363 C1313.14972,2648.67344 1478.3198,2554.0826 1644.08678,2460.50751 C1882.49592,2325.92525 2133.42921,2248.00535 2412.48948,2297.56789 M531.091921,2873.24947 C616.52003,2829.72909 703.780686,2788.02032 788.43389,2741.62023 C987.134353,2632.7041 1166.39934,2495.11647 1348.31368,2361.46619 C1484.32008,2261.53478 1630.77725,2182.04412 1796.23007,2140.96365 C2057.59317,2076.06007 2309.16524,2110.25016 2545.6057,2231.17733 C2688.72239,2304.36402 2822.08993,2396.44166 2959.69851,2480.24666 C2992.32832,2500.12194 3024.43454,2520.8559 3056.72926,2541.16052 C2454.47051,3485.83331 1210.49566,3524.18066 531.091921,2873.24947"/><path fill="#020303" d="M363.641098,2688.92036 C337.357137,2654.02867 311.34544,2619.49301 283.543083,2582.58027 C338.435722,2558.29641 390.637134,2536.01263 442.168359,2512.2733 C640.816463,2420.74019 821.097209,2299.76066 996.089748,2170.14199 C1150.47399,2055.79105 1317.18341,1966.24757 1507.37039,1925.96294 C1719.76783,1880.97653 1927.57867,1890.67332 2128.48866,1979.16964 C2137.58856,1983.1803 2146.37432,1987.89256 2153.76734,1997.35898 C2120.28932,1992.84568 2086.85319,1988.01823 2053.34376,1983.85049 C1743.21396,1945.25181 1459.51473,2020.06162 1199.98417,2187.69256 C1065.54852,2274.52387 937.521544,2371.13575 804.44721,2460.13471 C670.22099,2549.90858 527.313732,2624.3414 377.002984,2684.23951 C373.254116,2685.7265 369.39006,2686.9098 363.641098,2688.92036"/><path fill="#FEFEFE" d="M2412.48948,2297.56789 C2133.42921,2248.00535 1882.49592,2325.92525 1644.08678,2460.50751 C1478.3198,2554.0826 1313.14972,2648.67344 1131.81133,2710.39363 C1085.79869,2726.04881 1038.83312,2738.97089 989.678975,2748.24881 C991.919918,2745.89268 993.825767,2743.03391 996.454164,2741.24325 C1150.48236,2636.84042 1304.55245,2532.52137 1458.64348,2428.22326 C1605.61376,2328.74213 1762.03998,2251.42959 1939.95412,2224.1194 C2094.33836,2200.41148 2242.87939,2219.4595 2385.37825,2283.49393 C2394.65618,2287.66166 2403.46287,2292.85563 2412.48948,2297.56789"/><path fill="#FEFEFE" fill-rule="nonzero" d="M182.13 283.14 182.13 259.74 218.01 259.74 218.01 283.14 182.13 283.14ZM218.01 206.31 218.01 229.71 182.13 229.71 182.13 206.31 218.01 206.31ZM216.84 69.42C214.89 83.46 210.6 103.35 206.7 117L226.59 121.29 170.82 121.29 188.37 117C187.59 104.13 184.08 84.24 178.23 69.42L216.84 69.42ZM86.58 97.11 60.84 97.11 60.84 54.99 86.58 54.99 86.58 97.11ZM60.84 261.3 60.84 214.11 86.58 214.11 86.58 256.62 60.84 261.3ZM86.58 176.67 60.84 176.67 60.84 134.55 86.58 134.55 86.58 176.67ZM326.04 171.6C322.14 186.42 317.46 200.85 312 214.5 310.44 196.95 309.27 177.84 308.49 157.17L366.99 157.17 366.99 121.29 306.93 121.29C306.15 95.16 305.76 67.86 305.76 39 318.63 57.33 331.11 80.34 336.57 95.94L368.55 78C361.92 60.45 346.71 35.1 330.72 15.99L305.76 29.25 305.76 0 265.2 0C265.59 43.29 266.37 84.24 267.54 121.29L236.34 121.29C240.63 108.81 246.09 91.26 251.94 74.49L225.42 69.42 258.96 69.42 258.96 35.49 219.18 35.49 219.18.39 179.79.39 179.79 35.49 141.57 35.49 141.57 14.43 7.8 14.43 7.8 54.99 23.01 54.99 23.01 267.54C14.82 269.1 7.02 270.27 0 271.05L7.8 313.56C31.2 308.88 58.89 303.03 86.58 297.18L86.58 363.87 125.19 363.87 125.19 54.99 140.01 54.99 140.01 69.42 170.82 69.42 148.2 74.88C152.88 89.31 156 108.42 156.78 121.29L132.21 121.29 132.21 157.17 269.1 157.17C271.05 202.02 274.56 241.02 279.63 272.61 271.83 283.53 263.25 293.67 253.89 302.64L253.89 174.33 146.64 174.33 146.64 337.35 182.13 337.35 182.13 314.73 240.63 314.73C232.05 321.75 222.69 328.38 212.94 334.23 221.13 341.64 234.39 356.85 239.46 364.65 258.18 351.78 275.34 336.57 290.55 319.02 299.91 347.49 312.78 363.09 330.33 363.48 343.59 363.48 361.92 349.83 371.67 286.65 365.04 282.36 348.27 270.27 341.64 260.91 340.08 291.72 336.96 309.66 332.28 309.66 327.6 309.27 323.31 298.74 319.8 280.02 338.13 250.77 352.56 217.23 363.09 179.79L326.04 171.6ZM542.1 8.58C539.37 60.06 544.83 237.12 389.22 323.31 404.82 334.23 420.03 348.27 428.22 360.36 510.51 310.05 551.46 234.78 572.52 164.58 594.36 236.34 638.04 316.68 726.18 360.36 733.59 347.88 747.63 331.89 762.06 320.97 616.59 252.72 597.09 84.63 593.97 30.81 594.36 22.62 594.75 14.82 595.14 8.58L542.1 8.58Z" transform="translate(561.53 667.06)"/></g></svg>
